X: 1
T: The Girls of Banbridge
M: 6/8
L: 1/8
R: Double Jig
K: D
Q: 190
S: Tom Barrett
N: Played as a break in the middle of the Bell Table Waltz
|: A | Add dcB | BAG FED | FGF FED | EFE E2 A | Add dcB | BAG FED | faf gec | edd d2 :||: B | AFA dfa | agf efg | fef ged | cBc dcB | AFA dfa | agf efg | fef gfc | edd d2 :|
